X: 40310
T: Tom Bawcock's Eve
R: jig
M: 6/8
K: Gmajor
D|:G2B BAB|G2B BAB|d2B A2B|e2d B2D|
G2B BAB|G2B BAB|d2B A2F|G2G G2B:|
|:d2B A2B|e2d B2B|d2B A2B|e2b B2b|
G2B BAB|G2B BAB|d2B A2F|G2G G2D:|

